X:162
T:Foggy Mountain Breakdown
C:Joe Carr - Merlin's Magical Mandolin Method (1978)
N:Arrangement/Transcription by Joe Carr Transcribed by Wendy Anthony 12 Nov 2004
R:bluegrass
L:1/8
Q:1/4=260
M:4/4
K:G
z2 B2 c2 ^c2 | "G"[gd][gd] [gd][gd] z[gd] [gd][gd] | [gd][gd] [gd][gd] z[gd] [gd][gd] | 
[gd][gd] [g2d2] c2 ^AB | G2 GG GG G2 | "Em"E2 EF GF GA | BA Bc BA GA | "G"BA GB AG FA | 
G2 GG G2 D2 | "Em"EE EE E2 E2 | GF GA BA GA | "G"BA GB AG FA | GA Bd ef ge | "D"fe df ed ce | 
dc Bd cB Ac | "G"Bc ^cd BG ED | G8 | 


